X:1
T: The Magpie's Nest
C:
R:Reel
Q: 232
K:D
M:4/4
L:1/8
|:Ad dA BA FA|dA FA GF ED|FA AB AF EF|AB de fe e2|
Ad dA BA FA|dA FA GF ED|FA AB AF EF|AB de fd d2|
a2 af g2 ge|f2 fd ec A2|a2 ag fe dB|AB de fe e2|
a2 af g2 ge|f2 df ec AF|G2 BG F2 AF|AB de fd d2:|
